X:2969
T:Kolo
C:anon.
O:Serbia
R:Kolo
Z:Transcribed by Frank Nordberg - http://www.musicaviva.com
F:http://abc.musicaviva.com/tunes/serbia/kolo.abc
M:C
L:1/4
K:Dm
d>ddc|=BA/^G/A2|DFAA|^GF/E/D2|
|:DFAA|=BA/^G/A2|^GFED|EEE2:|
W:
W:
W:  From Musica Viva - http://www.musicaviva.com
W:  the Internet center for free sheet music downloads.
